!!!OTL: WE SALL DAT MUEHLKEN MAHLEN
!!!ARE: Europa, Mitteleuropa, Deutschland, Westfalen
!!!SCT: E1564
!!!YEM: Copyright 1995, estate of Helmut Schaffrath.
**kern
*ICvox
*Ivox
*M6/8
*k[b-]
*F:
{8c
=1
4f
8g
4a
8b-
=2
4.cc
4a}
{16a
16b-
=3
4cc
8cc
4f}
{8cc
=4
4dd
8cc
4dd
8cc
=5
4.cc
4.a}
=6
{4.ff
4dd
16dd
16dd
=7
4dd
8dd
4cc}
{8a
=8
4cc
8cc
8cc
8.cc
16b-
=9
[4.a
4a]}
==
!!!AGN: Staende -, Bauern - Lied, Flachsbrechen, bei der Arbeit
!!!ONB: ESAC (Essen Associative Code) Database: ERK3
!!!AMT: compound duple
!!!AIN: vox
!!!EED: Helmut Schaffrath
!!!EEV: 1.0
*-
